X: 9
T: Going To The Well For Water
Z: NfldWhistler
S: https://thesession.org/tunes/455#setting47044
R: slide
M: 12/8
L: 1/8
K: Dmaj
|:A2f A2f A2f fed|B2g B2g B2g gfe|
c2c ~B2B Ace a2f|1 gec ABc dfe dcB:|2 gec ABc dfe d2e||
|:~f2f fed ~e2e edc|d2d dcB c2c cBA|
GBB GBB FAA FAA|1 EFE ~e2d cBc d2e:|2 EFE ~e2d cBc d2B||

